other/slide.svg

<?xml version="1.0" encoding="UTF-8" standalone="no"?>
<svg
   xmlns:dc="http://purl.org/dc/elements/1.1/"
   xmlns:cc="http://creativecommons.org/ns#"
   xmlns:rdf="http://www.w3.org/1999/02/22-rdf-syntax-ns#"
   xmlns:svg="http://www.w3.org/2000/svg"
   xmlns="http://www.w3.org/2000/svg"
   xmlns:sodipodi="http://sodipodi.sourceforge.net/DTD/sodipodi-0.dtd"
   xmlns:inkscape="http://www.inkscape.org/namespaces/inkscape"
   width="48"
   height="48"
   viewBox="0 0 48 48"
   version="1.1"
   id="svg4545"
   sodipodi:docname="slide.svg"
   inkscape:version="0.92.1 r">
  <metadata
     id="metadata4551">
    <rdf:RDF>
      <cc:Work
         rdf:about="">
        <dc:format>image/svg+xml</dc:format>
        <dc:type
           rdf:resource="http://purl.org/dc/dcmitype/StillImage" />
        <dc:title></dc:title>
      </cc:Work>
    </rdf:RDF>
  </metadata>
  <defs
     id="defs4549" />
  <sodipodi:namedview
     pagecolor="#ffffff"
     bordercolor="#666666"
     borderopacity="1"
     objecttolerance="10"
     gridtolerance="10"
     guidetolerance="10"
     inkscape:pageopacity="0"
     inkscape:pageshadow="2"
     inkscape:window-width="640"
     inkscape:window-height="480"
     id="namedview4547"
     showgrid="false"
     inkscape:pagecheckerboard="true"
     inkscape:showpageshadow="false"
     inkscape:object-paths="true"
     inkscape:snap-intersection-paths="true"
     inkscape:snap-smooth-nodes="true"
     inkscape:snap-midpoints="true"
     inkscape:snap-bbox="true"
     inkscape:bbox-paths="true"
     inkscape:bbox-nodes="true"
     inkscape:snap-bbox-edge-midpoints="true"
     inkscape:snap-bbox-midpoints="true"
     inkscape:snap-object-midpoints="true"
     inkscape:snap-center="true"
     inkscape:snap-text-baseline="true"
     inkscape:zoom="5.6568542"
     inkscape:cx="-16.309184"
     inkscape:cy="64.992839"
     inkscape:current-layer="svg4545"
     inkscape:snap-global="true" />
  <path
     style="fill:#ffffff"
     d="M 24.050781 4 L 24.091797 4.0410156 L 24.091797 4.0019531 L 38.003906 4.0019531 C 38.002332 4.0019495 38.001575 4 38 4 L 24.050781 4 z "
     id="path5457" />
  <path
     style="fill:#ffffff"
     d="M 6 8 C 4.892 8 4 8.892 4 10 L 4 38 C 4 39.108 4.892 40 6 40 L 42 40 C 43.108 40 44 39.108 44 38 L 44 10 C 44 8.892 43.108 8 42 8 L 6 8 z M 36.945312 14.710938 A 3.6538959 3.6538959 0 0 1 40.597656 18.365234 A 3.6538959 3.6538959 0 0 1 36.945312 22.019531 A 3.6538959 3.6538959 0 0 1 35.685547 21.789062 L 32.509766 26.410156 A 3.091758 3.091758 0 0 1 33.1875 28.339844 A 3.091758 3.091758 0 0 1 30.095703 31.431641 A 3.091758 3.091758 0 0 1 27.003906 28.339844 A 3.091758 3.091758 0 0 1 27.023438 27.994141 L 20.21875 25.054688 A 3.091758 3.091758 0 0 1 17.859375 26.148438 A 3.091758 3.091758 0 0 1 16.044922 25.554688 L 11.939453 28.654297 A 2.3047652 2.3047652 0 0 1 12.011719 29.214844 A 2.3047652 2.3047652 0 0 1 9.7070312 31.519531 A 2.3047652 2.3047652 0 0 1 7.4023438 29.214844 A 2.3047652 2.3047652 0 0 1 9.7070312 26.910156 A 2.3047652 2.3047652 0 0 1 10.855469 27.220703 L 14.958984 24.121094 A 3.091758 3.091758 0 0 1 14.769531 23.056641 A 3.091758 3.091758 0 0 1 17.859375 19.964844 A 3.091758 3.091758 0 0 1 20.951172 23.056641 A 3.091758 3.091758 0 0 1 20.931641 23.404297 L 27.734375 26.34375 A 3.091758 3.091758 0 0 1 30.095703 25.248047 A 3.091758 3.091758 0 0 1 31.027344 25.394531 L 34.201172 20.771484 A 3.6538959 3.6538959 0 0 1 33.291016 18.365234 A 3.6538959 3.6538959 0 0 1 36.945312 14.710938 z "
     id="rect5710" />
</svg>

<?xml version="1.0" encoding="UTF-8"?>
<svg version="1.1" viewBox="0 0 48 48" xmlns="http://www.w3.org/2000/svg">
    <path d="m24.051 4l0.041016 0.041016v-0.039062h13.912c-0.001574-3.6e-6 -0.002331-0.0019531-0.003906-0.0019531h-13.949z" fill="#fff"/>
    <path d="m6 8c-1.108 0-2 0.892-2 2v28c0 1.108 0.892 2 2 2h36c1.108 0 2-0.892 2-2v-28c0-1.108-0.892-2-2-2h-36zm30.945 6.7109a3.6539 3.6539 0 0 1 3.6523 3.6543 3.6539 3.6539 0 0 1 -3.6523 3.6543 3.6539 3.6539 0 0 1 -1.2598 -0.23047l-3.1758 4.6211a3.0918 3.0918 0 0 1 0.67773 1.9297 3.0918 3.0918 0 0 1 -3.0918 3.0918 3.0918 3.0918 0 0 1 -3.0918 -3.0918 3.0918 3.0918 0 0 1 0.019532 -0.3457l-6.8047-2.9395a3.0918 3.0918 0 0 1 -2.3594 1.0938 3.0918 3.0918 0 0 1 -1.8145 -0.59375l-4.1055 3.0996a2.3048 2.3048 0 0 1 0.072266 0.56055 2.3048 2.3048 0 0 1 -2.3047 2.3047 2.3048 2.3048 0 0 1 -2.3047 -2.3047 2.3048 2.3048 0 0 1 2.3047 -2.3047 2.3048 2.3048 0 0 1 1.1484 0.31055l4.1035-3.0996a3.0918 3.0918 0 0 1 -0.18945 -1.0645 3.0918 3.0918 0 0 1 3.0898 -3.0918 3.0918 3.0918 0 0 1 3.0918 3.0918 3.0918 3.0918 0 0 1 -0.019531 0.34766l6.8027 2.9395a3.0918 3.0918 0 0 1 2.3613 -1.0957 3.0918 3.0918 0 0 1 0.93164 0.14648l3.1738-4.623a3.6539 3.6539 0 0 1 -0.91016 -2.4062 3.6539 3.6539 0 0 1 3.6543 -3.6543z" fill="#fff"/>
</svg>
